X:1
T: Lady of the Lake
N: Taught by Paul Lizotte at RJ practice 2010-5-11,25
R: reel
Z: 2010 John Chambers <jc:trillian.mit.edu>
M: C|
L: 1/8
K: D
|: "D"AGFE DEFG | "D"AGFE DEFG | "D"A2d2 f3g | "A7"f2e2- e2 |
| "A7"edcB ABcd | "A7"edcB A2AB | "A7"A2G2 F2E2 |1 "D"F4 z2 :|2 "D"D4 "A7"z2FE ||
|: "D"D2E2 F2A2 | "D"f8 | "D"f2d2 A2F2 | "Em"E8 |
| "A7"E2F2 G2A2 | "A7"e7 d | "A7"c2A2 B2c2 |1 "D"A4 "A7"z2FE :|2 "D"d6 z2 |]
